src/scalable/mimetypes/font.svg

<svg xmlns="http://www.w3.org/2000/svg" xmlns:xlink="http://www.w3.org/1999/xlink" width="48" height="48"><g paint-order="markers stroke fill"><rect rx="2" ry="1.905" y="4" x="6" height="40" width="36" fill="#4d4d4d"/><path d="M42 17.242A40 40 0 0 1 23.494 44H40c1.108 0 2-.85 2-1.904z" opacity=".15" fill="url(#a)"/></g><defs><linearGradient xlink:href="#b" id="a" x1="32.747" y1="44" x2="32.747" y2="17.242" gradientUnits="userSpaceOnUse"/><linearGradient id="b"><stop offset="0"/><stop offset="1" stop-opacity="0"/></linearGradient></defs><path d="M20.136 26.232c-.072.72-.096 1.344-.096 1.824.024 1.368.408 1.968.888 2.184.216.096.36.024.36-.216.048-1.272.192-2.592.36-3.84a5.62 5.62 0 0 1 1.032.144c.216.072.312 0 .264-.216-.096-.504-.36-.984-1.08-1.224a50.053 50.053 0 0 1 1.752-6.984c.216-.648.24-1.176 0-1.752-.24-.6-.312-.648-.552-.984-.24-.336-.48-.336-.864-.024-2.544 2.088-5.88 6.84-7.752 10.104a13.493 13.493 0 0 1-1.08-.12c-.36-.048-.408.048-.288.36.072.168.264.528.792.816a12.983 12.983 0 0 0-.648 1.368c-.504 1.344-.408 2.064-.12 2.448.12.168.336.168.432-.048a37.964 37.964 0 0 1 1.824-3.456c1.128.024 3.072-.264 4.776-.384zm-3.864-1.056c1.824-2.856 4.008-5.76 5.832-7.8-.744 1.872-1.416 4.896-1.776 7.392-1.128.024-2.592.288-4.056.408zM31.008 22.2c.048-.936-.432-1.728-1.464-1.728-1.2 0-3.096 1.08-5.04 3.912-1.992 2.904-1.536 5.952.696 5.952 1.152 0 2.232-.888 3-1.872 0 1.128.672 1.896 1.968 1.968 1.32.072 2.832-1.248 3.456-2.568.312-.672.312-1.272.216-1.488-.096-.216-.264-.192-.384.024-.84 1.656-2.16 3.288-3.144 3.336-.816.048-.792-.984-.192-2.328.576-1.272 1.776-3.072 2.304-4.152.576-1.2.384-2.232.024-2.664-.168-.216-.36-.168-.576.144-.264.384-.552.888-.864 1.464zm-2.088 3.72c-1.224 2.112-2.472 3.648-3.456 3.624-.936-.024-.624-2.136.648-4.2 1.32-2.136 3.072-3.696 3.84-3.624.696.072.48 1.56-1.032 4.2z" fill="#FFF" fill-rule="evenodd"/></svg>

<?xml version="1.0" encoding="UTF-8" standalone="no"?>
<svg
   xmlns:dc="http://purl.org/dc/elements/1.1/"
   xmlns:cc="http://creativecommons.org/ns#"
   xmlns:rdf="http://www.w3.org/1999/02/22-rdf-syntax-ns#"
   xmlns:svg="http://www.w3.org/2000/svg"
   xmlns="http://www.w3.org/2000/svg"
   xmlns:xlink="http://www.w3.org/1999/xlink"
   xmlns:sodipodi="http://sodipodi.sourceforge.net/DTD/sodipodi-0.dtd"
   xmlns:inkscape="http://www.inkscape.org/namespaces/inkscape"
   width="48px"
   height="48px"
   viewBox="0 0 48 48"
   version="1.1"
   id="svg18"
   sodipodi:docname="font.svg"
   inkscape:version="0.92.2 2405546, 2018-03-11">
  <metadata
     id="metadata22">
    <rdf:RDF>
      <cc:Work
         rdf:about="">
        <dc:format>image/svg+xml</dc:format>
        <dc:type
           rdf:resource="http://purl.org/dc/dcmitype/StillImage" />
      </cc:Work>
    </rdf:RDF>
  </metadata>
  <sodipodi:namedview
     pagecolor="#ffffff"
     bordercolor="#666666"
     borderopacity="1"
     objecttolerance="10"
     gridtolerance="10"
     guidetolerance="10"
     inkscape:pageopacity="0"
     inkscape:pageshadow="2"
     inkscape:window-width="1920"
     inkscape:window-height="1051"
     id="namedview20"
     showgrid="false"
     inkscape:zoom="9.8333333"
     inkscape:cx="29.77608"
     inkscape:cy="18.697623"
     inkscape:window-x="0"
     inkscape:window-y="29"
     inkscape:window-maximized="1"
     inkscape:current-layer="svg18" />
  <!-- Generator: Sketch 41.2 (35397) - http://www.bohemiancoding.com/sketch -->
  <title
     id="title2">font</title>
  <desc
     id="desc4">Created with Sketch.</desc>
  <g
     id="g829">
    <rect
       rx="2"
       ry="1.9047618"
       y="4"
       x="6"
       height="40"
       width="36"
       id="rect834"
       style="opacity:1;fill:#4d4d4d;fill-opacity:1;stroke:none;stroke-width:0.92582005;stroke-linecap:round;stroke-linejoin:round;stroke-miterlimit:4;stroke-dasharray:none;stroke-opacity:0.05882353;paint-order:markers stroke fill" />
    <path
       inkscape:connector-curvature="0"
       id="rect866"
       d="M 42,17.242188 A 40,40 0 0 1 23.494141,44 H 40 c 1.108,0 2,-0.849059 2,-1.904297 z"
       style="opacity:0.15;fill:url(#linearGradient877);fill-opacity:1;stroke:none;stroke-width:0.92582005;stroke-linecap:round;stroke-linejoin:round;stroke-miterlimit:4;stroke-dasharray:none;stroke-opacity:0.05882353;paint-order:markers stroke fill" />
  </g>
  <defs
     id="defs11">
    <linearGradient
       inkscape:collect="always"
       xlink:href="#linearGradient875"
       id="linearGradient877"
       x1="32.74707"
       y1="44"
       x2="32.74707"
       y2="17.242188"
       gradientUnits="userSpaceOnUse" />
    <linearGradient
       inkscape:collect="always"
       id="linearGradient875">
      <stop
         style="stop-color:#000000;stop-opacity:1;"
         offset="0"
         id="stop871" />
      <stop
         style="stop-color:#000000;stop-opacity:0;"
         offset="1"
         id="stop873" />
    </linearGradient>
  </defs>
  <g
     id="Page-1"
     stroke="none"
     stroke-width="1"
     fill="none"
     fill-rule="evenodd">
    <g
       id="font">
      <path
         d="M20.136,26.232 C20.064,26.952 20.04,27.576 20.04,28.056 C20.064,29.424 20.448,30.024 20.928,30.24 C21.144,30.336 21.288,30.264 21.288,30.024 C21.336,28.752 21.48,27.432 21.648,26.184 C22.056,26.208 22.392,26.256 22.68,26.328 C22.896,26.4 22.992,26.328 22.944,26.112 C22.848,25.608 22.584,25.128 21.864,24.888 C22.32,22.248 22.992,19.8 23.616,17.904 C23.832,17.256 23.856,16.728 23.616,16.152 C23.376,15.552 23.304,15.504 23.064,15.168 C22.824,14.832 22.584,14.832 22.2,15.144 C19.656,17.232 16.32,21.984 14.448,25.248 C14.064,25.224 13.704,25.176 13.368,25.128 C13.008,25.08 12.96,25.176 13.08,25.488 C13.152,25.656 13.344,26.016 13.872,26.304 C13.584,26.832 13.368,27.312 13.224,27.672 C12.72,29.016 12.816,29.736 13.104,30.12 C13.224,30.288 13.44,30.288 13.536,30.072 C14.016,29.016 14.64,27.84 15.36,26.616 C16.488,26.64 18.432,26.352 20.136,26.232 Z M16.272,25.176 C18.096,22.32 20.28,19.416 22.104,17.376 C21.36,19.248 20.688,22.272 20.328,24.768 C19.2,24.792 17.736,25.056 16.272,25.176 Z M31.008,22.2 C31.056,21.264 30.576,20.472 29.544,20.472 C28.344,20.472 26.448,21.552 24.504,24.384 C22.512,27.288 22.968,30.336 25.2,30.336 C26.352,30.336 27.432,29.448 28.2,28.464 C28.2,29.592 28.872,30.36 30.168,30.432 C31.488,30.504 33,29.184 33.624,27.864 C33.936,27.192 33.936,26.592 33.84,26.376 C33.744,26.16 33.576,26.184 33.456,26.4 C32.616,28.056 31.296,29.688 30.312,29.736 C29.496,29.784 29.52,28.752 30.12,27.408 C30.696,26.136 31.896,24.336 32.424,23.256 C33,22.056 32.808,21.024 32.448,20.592 C32.28,20.376 32.088,20.424 31.872,20.736 C31.608,21.12 31.32,21.624 31.008,22.2 Z M28.92,25.92 C27.696,28.032 26.448,29.568 25.464,29.544 C24.528,29.52 24.84,27.408 26.112,25.344 C27.432,23.208 29.184,21.648 29.952,21.72 C30.648,21.792 30.432,23.28 28.92,25.92 Z"
         id="-Aa"
         fill="#FFFFFF" />
    </g>
  </g>
</svg>
